X: 111
M: 6/8
L: 1/8
K: D
dfe dcB | AAA A2 :|
|: "4f"A |\
[eA]2[eA] [eA][fA][gA] | [fd]2[fd] [fd]ga |\
agf agf | [eA][eA][eA] [eA]2A |\
[dF]2f [dG]2f | [eA]2g [eA]2g |\
fed edc | [dF][dF][dF] [dF]2 :|

